X:1
T:Title
%%score { ( 1 4 ) | ( 2 3 ) }
L:1/8
M:2/4
K:Ab
V:1 treble nm="Grand Piano"
V:4 treble 
V:2 bass 
V:3 bass 
V:1
 z2[Q:1/4=86] AB | c>[Fd] [Ec][DB] | [CA][CE] [A,DF][A,FA] | [DFB]>[DFc] [DFB][DFA] | G2 AB | %5
 c>[Fd] [Ec][DB] | [CA][CE] [A,DF][A,FA] | [DFB]>[DFA] GF/G/ | [A,CA]2 [Ac][Ac]/d/ | %9
 [ce][Ac] [GB].[EB] | [Fd][DB] [CA]B | cB/c/ [Bd][Ac] | [GB]2 [Ac][Ac]/d/ | [ce][Ac] [GB].[EB] | %14
 [Fd][DB] [CA]B | cB/A/ [B,EG][=DF] |[M:1/4] [G,E]2 | [Ge]>[Gf] |[M:2/4] e/c/A cc | %19
 [Ac][GB] [Gd]>[Ge] | .[Gd][B,EG] [DGB][DEB] | [CEB][CEA] [A,EA]B | ce/d/ cB | c2 [Ge]>[Gf] | %24
 e/c/A cc | [Ac][GB] [Gd]>[Ge] | .[Gd][B,EG] [DGB][DEB] | [DEB][CEA] [A,EA]B | ce/d/ cB | %29
[M:1/4] [CA]2 |] %30
V:2
 z2 [A,C][A,D] | [A,E]>[D,A,] [E,A,][E,G,] | [A,,A,][A,,A,] D,D, | B,,>B,, B,,B,, | %4
 [E,B,E]2 [A,C][A,D] | [A,E]>[D,A,] [E,A,][E,G,] | [A,,A,][A,,A,] D,D, | B,,>B,, [E,B,E][E,B,D] | %8
 A,,2 .A,>[K:treble]B | A,,C, .E,>[K:treble]c | B,,E, z E | A[K:treble]G/A/[K:bass] G,,A,, | %12
 E,,E, .A,>[K:treble]B | A,,C, .E,>[K:treble]c | B,,E, z E | A[K:treble]G/F/[K:bass] z A, | %16
[M:1/4] E,2 | [E,B,]>[E,B,] |[M:2/4][K:treble] [A,CA][A,CE] [A,EA][A,EA] | %19
 [E,E][E,E] [E,B,]>[E,B,] | z/[K:treble] B/[K:bass]E, E,E, | A,,A,, C,[E,G,E] | %22
 [A,E][D,A,] [E,A,E][E,G,E] | [A,E]2 [E,B,]>[E,B,] | [A,CA][A,CE] [A,EA][A,EA] | %25
 [E,E][E,E] [E,B,]>[E,B,] | z/[K:treble] B/[K:bass]E, E,E, | A,,A,, C,[E,G,E] | %28
 [A,E][E,A,F] [E,A,E][E,G,D] |[M:1/4] [A,,A,]2 |] %30
V:3
 x4 | x4 | x4 | x4 | x4 | x4 | x4 | x4 | z2 z E,[K:treble] | z2 z C,[K:treble] | z2 A,,2- | %11
 A,,2[K:treble][K:bass] z2 | z2 z E,[K:treble] | z2 z C,[K:treble] | z2 A,,2- | %15
 A,,2[K:treble][K:bass] B,,2 |[M:1/4] x2 | x2 |[M:2/4][K:treble] x4 | x4 | %20
 .[E,B,]2[K:treble][K:bass] z2 | x4 | x4 | x4 | x4 | x4 | .[E,B,]2[K:treble][K:bass] z2 | x4 | x4 | %29
[M:1/4] x2 |] %30
V:4
 x4 | x4 | x4 | x4 | x4 | x4 | x4 | x4 | x4 | x4 | x4 | x4 | x4 | x4 | x4 | x4 |[M:1/4] x2 | x2 | %18
[M:2/4] x4 | x4 | x4 | x4 | z F z2 | x4 | x4 | x4 | x4 | x4 | x4 |[M:1/4] x2 |] %30

